X:0
T:The Ewie Wi' The Crookit Horn
G:strathspey
S:Kerr's Merry Melodies volume 3
M:4/4
L:1/8
Q:1/4=120
K:GMin
D<GG>A F>GA>F|D<G      GA/B/ c>AB>G |A>Bc>B A>G   F>C  |D<G      G>B A>^FG2:|
G<gg>a f>ga>f|d<g      g>a   f>ag2  |d<gg>a b/a/g a/g/f|d<g      b>g a>^fg2 |
f>gf>d c>BA<F|G/A/B/c/ d>B   c>Ad>=e|f<ad<f c<f   A<F  |G/A/B/c/ d>B c>A G2|]

It happens much earlier.  This is from the Skene Manuscript of lute tunes
from 1625; this is a still-well-known tune, in the mixolydian/dorian
hexatonic mode.  Among the fast scales at the end, the gap is filled in
and a sharpened leading note is introduced.  The manuscript was heavily
influenced by the art music of the time.

